images/icons/colored-logo-4.svg

<svg width="104" height="74" viewBox="0 0 104 74" fill="none" xmlns="http://www.w3.org/2000/svg">
<path d="M8.47167 67.076V52H6V67.076H8.47167Z" fill="#152C4F"/>
<path d="M9.98438 62.0507C9.98438 65.1307 12.0509 67.3191 15.1911 67.3191C18.3313 67.3191 20.3978 65.1307 20.3978 62.0507C20.3978 58.9706 18.3313 56.7822 15.1911 56.7822C12.0509 56.7822 9.98438 58.9706 9.98438 62.0507ZM12.4763 62.0507C12.4763 60.2472 13.5501 58.9909 15.1911 58.9909C16.8321 58.9909 17.9059 60.2472 17.9059 62.0507C17.9059 63.8338 16.8321 65.1104 15.1911 65.1104C13.5501 65.1104 12.4763 63.8338 12.4763 62.0507Z" fill="#152C4F"/>
<path d="M21.2292 61.8481C21.2292 64.7661 23.1133 66.8735 25.9294 66.8735C27.3881 66.8735 28.6442 66.2858 29.2722 65.3132V67.0153C29.2722 68.6566 28.239 69.7509 26.5169 69.7509C24.9772 69.7509 23.9237 69.0011 23.7819 67.684H21.29C21.6141 70.298 23.6198 72.0001 26.3751 72.0001C29.6167 72.0001 31.6831 69.8724 31.6831 66.5695V57.066H29.4951L29.3533 58.4236C28.7455 57.3699 27.4894 56.7417 26.0104 56.7417C23.1538 56.7417 21.2292 58.9099 21.2292 61.8481ZM23.7414 61.7873C23.7414 60.1257 24.7949 58.9099 26.3549 58.9099C28.0567 58.9099 29.1912 60.146 29.1912 61.7873C29.1912 63.4489 28.0567 64.7255 26.3549 64.7255C24.8151 64.7255 23.7414 63.4692 23.7414 61.7873Z" fill="#152C4F"/>
<path d="M32.9062 62.0507C32.9062 65.1307 34.9727 67.3191 38.1129 67.3191C41.2531 67.3191 43.3196 65.1307 43.3196 62.0507C43.3196 58.9706 41.2531 56.7822 38.1129 56.7822C34.9727 56.7822 32.9062 58.9706 32.9062 62.0507ZM35.3982 62.0507C35.3982 60.2472 36.4719 58.9909 38.1129 58.9909C39.7539 58.9909 40.8278 60.2472 40.8278 62.0507C40.8278 63.8338 39.7539 65.1104 38.1129 65.1104C36.4719 65.1104 35.3982 63.8338 35.3982 62.0507Z" fill="#152C4F"/>
<path d="M45.9946 55.0193C46.805 55.0193 47.4736 54.3708 47.4736 53.54C47.4736 52.7295 46.805 52.0811 45.9946 52.0811C45.164 52.0811 44.5359 52.7295 44.5359 53.54C44.5359 54.3708 45.164 55.0193 45.9946 55.0193ZM44.7588 67.076H47.2305V57.0659H44.7588V67.076Z" fill="#152C4F"/>
<path d="M49.396 71.7164H51.8068V65.6982C52.4349 66.7316 53.7923 67.3395 55.2915 67.3395C58.2494 67.3395 60.012 65.07 59.9714 61.9494C59.9107 58.8086 58.1076 56.762 55.2712 56.762C53.7518 56.762 52.3741 57.4307 51.7663 58.5857L51.6245 57.066H49.396V71.7164ZM51.9081 62.071C51.9081 60.2676 53.0022 59.0112 54.7242 59.0112C56.4463 59.0112 57.4795 60.2878 57.4795 62.071C57.4795 63.8542 56.4463 65.1105 54.7242 65.1105C53.0022 65.1105 51.9081 63.8745 51.9081 62.071Z" fill="#152C4F"/>
<path d="M60.5989 64.0771C60.68 66.0629 62.2197 67.3395 64.6103 67.3395C66.9604 67.3395 68.5609 66.0832 68.5609 64.1379C68.5609 62.6992 67.6695 61.7265 66.0285 61.3213L64.2659 60.8957C63.5163 60.6931 63.0098 60.4297 63.0098 59.7813C63.0098 59.0923 63.5568 58.606 64.4482 58.606C65.3802 58.606 65.988 59.1328 65.988 60.0042H68.2368C68.1557 58.0183 66.6768 56.762 64.509 56.762C62.3615 56.762 60.761 58.0183 60.761 59.9231C60.761 61.22 61.5106 62.2939 63.4353 62.8005L65.1776 63.2463C65.8259 63.4287 66.2311 63.7326 66.2311 64.3C66.2311 65.0903 65.4815 65.455 64.5698 65.455C63.4758 65.455 62.8477 64.9484 62.8477 64.0771H60.5989Z" fill="#152C4F"/>
<path d="M73.6878 67.3394C75.0452 67.3394 76.3418 66.7112 76.9293 65.7791L77.0914 67.076H79.401V57.0659H76.9293V62.3141C76.9293 64.1175 76.2405 65.1307 74.6198 65.1307C73.3637 65.1307 72.4925 64.5228 72.4925 62.4559V57.0659H70.0208V63.3273C70.0208 65.7183 71.3174 67.3394 73.6878 67.3394Z" fill="#152C4F"/>
<path d="M84.0541 67.0761V61.3213C84.0541 59.7002 85.0063 58.9302 86.1814 58.9302C87.3564 58.9302 88.1263 59.6799 88.1263 61.0984V67.0761H90.5372V61.3415C90.5372 59.7002 91.4691 58.9302 92.6442 58.9302C93.8395 58.9302 94.6094 59.6799 94.6094 61.0984V67.0761H97V60.531C97 58.221 95.7236 56.762 93.2925 56.762C91.773 56.762 90.5777 57.4915 90.0915 58.6668C89.5445 57.4915 88.4505 56.762 86.7892 56.762C85.6141 56.762 84.5606 57.3091 83.9731 58.2007L83.8515 57.066H81.5825V67.0761H84.0541Z" fill="#152C4F"/>
<path d="M45.487 38.3523C42.2308 44.2121 35.6009 47 28.8971 47H2C30 43.5 49.5 29.5 52 10C54.5 29.5 74 43.5 102 47H75.1029C68.3991 47 61.7692 44.2121 58.513 38.3523C54.9886 32.01 52.7432 24.8334 52 17C51.2568 24.8334 49.0114 32.01 45.487 38.3523Z" fill="#1A4688"/>
<path d="M30.1051 36.2813C28.5344 37.1656 26.8822 37.9962 25.1522 38.7699C24.1695 35.3753 23.8079 31.8138 24.0963 28.266C24.4778 23.5725 25.9851 19.0476 28.4847 15.0923C30.9844 11.137 34.3991 7.87319 38.4265 5.59008C42.4539 3.30698 46.9697 2.07501 51.5738 2.00332C56.1779 1.93162 60.7282 3.02241 64.8217 5.17906C68.9152 7.3357 72.4255 10.4916 75.0416 14.3673C77.6578 18.243 79.2991 22.7188 79.8202 27.3982C80.2463 31.2257 79.9123 35.0929 78.8478 38.7699C77.1178 37.9962 75.4656 37.1655 73.8949 36.2812C74.5571 33.593 74.7427 30.7964 74.4342 28.0256C74.014 24.2521 72.6904 20.6428 70.5808 17.5175C68.4711 14.3922 65.6404 11.8472 62.3394 10.1081C59.0384 8.36897 55.369 7.48937 51.6563 7.54718C47.9435 7.60499 44.302 8.59845 41.0544 10.4395C37.8067 12.2806 35.053 14.9125 33.0373 18.1021C31.0216 21.2917 29.8061 24.9405 29.4985 28.7254C29.2917 31.2694 29.4993 33.8222 30.1051 36.2813Z" fill="#7FB5E6"/>
</svg>

<svg width="104" height="74" fill="none" xmlns="http://www.w3.org/2000/svg"><path d="M8.472 67.076V52H6v15.076h2.472ZM9.984 62.05c0 3.08 2.067 5.27 5.207 5.27 3.14 0 5.207-2.19 5.207-5.27 0-3.08-2.067-5.268-5.207-5.268-3.14 0-5.207 2.189-5.207 5.269Zm2.492 0c0-1.803 1.074-3.06 2.715-3.06 1.641 0 2.715 1.257 2.715 3.06 0 1.784-1.074 3.06-2.715 3.06-1.64 0-2.715-1.276-2.715-3.06ZM21.23 61.848c0 2.918 1.883 5.026 4.7 5.026 1.458 0 2.714-.588 3.342-1.56v1.701c0 1.642-1.033 2.736-2.755 2.736-1.54 0-2.593-.75-2.735-2.067H21.29C21.614 70.298 23.62 72 26.375 72c3.242 0 5.308-2.128 5.308-5.43v-9.504h-2.188l-.142 1.358c-.608-1.054-1.864-1.682-3.343-1.682-2.856 0-4.78 2.168-4.78 5.106Zm2.511-.06c0-1.662 1.054-2.878 2.614-2.878 1.702 0 2.836 1.236 2.836 2.877 0 1.662-1.134 2.938-2.836 2.938-1.54 0-2.614-1.256-2.614-2.938ZM32.906 62.05c0 3.08 2.067 5.27 5.207 5.27 3.14 0 5.207-2.19 5.207-5.27 0-3.08-2.067-5.268-5.207-5.268-3.14 0-5.207 2.189-5.207 5.269Zm2.492 0c0-1.803 1.074-3.06 2.715-3.06 1.64 0 2.715 1.257 2.715 3.06 0 1.784-1.074 3.06-2.715 3.06-1.641 0-2.715-1.276-2.715-3.06ZM45.995 55.02c.81 0 1.479-.65 1.479-1.48a1.47 1.47 0 0 0-1.48-1.459 1.44 1.44 0 0 0-1.458 1.459c0 .83.628 1.48 1.459 1.48Zm-1.236 12.056h2.471v-10.01H44.76v10.01ZM49.396 71.716h2.41v-6.018c.629 1.034 1.986 1.642 3.486 1.642 2.957 0 4.72-2.27 4.68-5.39-.061-3.141-1.864-5.188-4.7-5.188-1.52 0-2.898.669-3.506 1.824l-.142-1.52h-2.228v14.65Zm2.512-9.645c0-1.803 1.094-3.06 2.816-3.06 1.722 0 2.756 1.277 2.756 3.06 0 1.783-1.034 3.04-2.756 3.04-1.722 0-2.816-1.237-2.816-3.04ZM60.599 64.077c.081 1.986 1.62 3.263 4.011 3.263 2.35 0 3.95-1.257 3.95-3.202 0-1.439-.89-2.412-2.532-2.817l-1.762-.425c-.75-.203-1.256-.466-1.256-1.115 0-.689.547-1.175 1.438-1.175.932 0 1.54.527 1.54 1.398h2.249c-.081-1.986-1.56-3.242-3.728-3.242-2.148 0-3.748 1.256-3.748 3.161 0 1.297.75 2.37 2.674 2.877l1.743.446c.648.183 1.053.487 1.053 1.054 0 .79-.75 1.155-1.661 1.155-1.094 0-1.722-.507-1.722-1.378h-2.25ZM73.688 67.34c1.357 0 2.654-.629 3.241-1.56l.162 1.296h2.31v-10.01h-2.472v5.248c0 1.804-.689 2.817-2.31 2.817-1.255 0-2.126-.608-2.126-2.675v-5.39H70.02v6.261c0 2.391 1.296 4.012 3.667 4.012ZM84.054 67.076v-5.755c0-1.62.952-2.39 2.127-2.39 1.175 0 1.945.749 1.945 2.167v5.978h2.411v-5.734c0-1.642.932-2.412 2.107-2.412 1.195 0 1.965.75 1.965 2.168v5.978H97v-6.545c0-2.31-1.276-3.769-3.707-3.769-1.52 0-2.715.73-3.202 1.905-.546-1.175-1.64-1.905-3.302-1.905-1.175 0-2.228.547-2.816 1.439l-.121-1.135h-2.27v10.01h2.472Z" fill="#152C4F"/><path d="M45.487 38.352C42.231 44.212 35.601 47 28.897 47H2c28-3.5 47.5-17.5 50-37 2.5 19.5 22 33.5 50 37H75.103c-6.704 0-13.334-2.788-16.59-8.648C54.989 32.01 52.743 24.833 52 17c-.743 7.833-2.989 15.01-6.513 21.352Z" fill="#1A4688"/><path d="M30.105 36.281a60.144 60.144 0 0 1-4.953 2.489 29.261 29.261 0 0 1-1.056-10.504 29.075 29.075 0 0 1 4.389-13.174 28.266 28.266 0 0 1 9.941-9.502 27.518 27.518 0 0 1 13.148-3.587A27.49 27.49 0 0 1 64.822 5.18a28.206 28.206 0 0 1 10.22 9.188 29.04 29.04 0 0 1 4.778 13.031 29.266 29.266 0 0 1-.972 11.372 60.144 60.144 0 0 1-4.953-2.489c.662-2.688.848-5.485.54-8.255a23.418 23.418 0 0 0-3.854-10.509 22.747 22.747 0 0 0-8.242-7.409 22.169 22.169 0 0 0-10.683-2.56 22.19 22.19 0 0 0-10.602 2.892 22.793 22.793 0 0 0-8.017 7.662A23.446 23.446 0 0 0 29.5 28.725c-.207 2.544 0 5.097.606 7.556Z" fill="#7FB5E6"/></svg>
